styles/emoji-one/1f1f5-1f1e6.svg

<svg xmlns="http://www.w3.org/2000/svg" viewBox="0 0 64 64" enable-background="new 0 0 64 64"><path fill="#ed4c5c" d="m32 2v30h30c0-16.568-13.432-30-30-30"/><path fill="#2a5f9e" d="M32,62V32H2C2,48.568,15.432,62,32,62z"/><g fill="#f9f9f9"><path d="m32 62v-30h30c0 16.568-13.432 30-30 30"/><path d="M32,2v30H2C2,15.432,15.432,2,32,2z"/></g><path fill="#2a5f9e" d="m17 20.654l3.09 2.346-1.166-3.81 3.076-2.44h-3.81l-1.19-3.75-1.153 3.75h-3.847l3.08 2.44-1.17 3.81z"/><path fill="#ed4c5c" d="m47 46.654l3.09 2.346-1.166-3.81 3.076-2.44h-3.81l-1.19-3.75-1.153 3.75h-3.847l3.08 2.44-1.17 3.81z"/></svg>

<svg xmlns="http://www.w3.org/2000/svg" viewBox="0 0 64 64"><path fill="#ed4c5c" d="M32 2v30h30C62 15.432 48.568 2 32 2"/><path fill="#2a5f9e" d="M32 62V32H2c0 16.568 13.432 30 30 30z"/><g fill="#f9f9f9"><path d="M32 62V32h30c0 16.568-13.432 30-30 30M32 2v30H2C2 15.432 15.432 2 32 2z"/></g><path fill="#2a5f9e" d="M17 20.654L20.09 23l-1.166-3.81L22 16.75h-3.81L17 13l-1.153 3.75H12l3.08 2.44L13.91 23z"/><path fill="#ed4c5c" d="M47 46.654L50.09 49l-1.166-3.81L52 42.75h-3.81L47 39l-1.153 3.75H42l3.08 2.44L43.91 49z"/></svg>
